X:193
T: SEHT WIE DIE SONNE DORT SINKET (SUESSER DIE GLOCKE NIE KLINGET)
N: B0228
O: Europa, Mitteleuropa, Deutschland, Thueringen; Schlesien
R: Tageszeiten - Lied, Abend
M: 6/8
L: 1/16
K: F
 | A3AA2A2G2A2 | c6G6
G3GG2G2F2G2 | A8z4
c3BA2A2G2F2 | f6d6
c3dc2c2B2G2 | F6z6
G3GG2A2A2zA | c2B2B2A6
G3GG2A2A2zA | c2B2B2A6
c3BA2A2G2F2 | f6d6
c3dc2c2B2G2 | F6z6

